X:288
T: Drought (The)
N: O'Farrell's Pocket Companion v.3 (Sky ed. p.130)
N: "Irish"
M: 9/8
L: 1/8
R: slip jig
Q: 280
K: D
A| F/G/AF dAG F2D| F/G/AF GEE E2A| F/G/AF dAG F2D| F/G/AE FDD D2 :|
A| dfg afb afd| c2A cee e2f| d3 dfg afd| g2e fdd d2A|
dfg afb afd| c2A cee e2f| dfg abc' d'c'b| abg fge d2 ||
